X:15022
T:Old Tom of Oxford
R:Morris Dance
C:Trad. Morris
O:England; Bampton
Z:Paul Hardy's Session Tunebook 2022 (see www.paulhardy.net). Creative Commons cc by-nc-sa licenced.
P:A.AB.CB.CB
M:4/4
L:1/8
Q:1/4=150
K:G
P:A
Bc|"G"d2ef g2d2|"D7"c2B2 A2BA|"G"G2Bc d2g2|"D7"f2g2 a2fe|"G"d2ef g2d2|"D7"c2B2 A2ef|"G"g2d2 "C"c2B2|"D7"A4 "G"G2||
P:B
dc|"G"Bcd2 B2d2|B2d2 gfed|"C"c2e2 c2e2|c2e2 gfed|"G"B2d2 B2c2|d2ef g2f2|"G"g2d2 "C"c2B2|"D7"A4 "G"G2||
P:C
G2|[M:2/4]"G"B2c2|[M:4/4]"D"d4 e2f2|"G"g4 d4|"C"c4 B4|"D"A4 B2A2|"G"G4 B2c2|
d4 g4|"D"f4 g4|[M:2/4]a2fe|[M:4/4]"G"d2ef g2d2|"D7"c2B2 A2ef|"G"g2d2 "C"c2B2|"D7"A4 "G"G2||

